X: 15808
T: Goodnight & Joy Be Wi' Ye A'
R: barndance
M: 4/4
K: Cmajor
ed|c2c2 G3c|A2A2 a3g|egag egag|e2d2 dfed|
c2c2 G3c|A2A2 a3g|egag egag|e2c2 c2e2|
dcde d2cA|GAd e2dc|Bcde fefg|a2d2 d3e|
fefg a2gf|edef g2fe|defa gede|c2c2 c2||

